src/assets/images/sectionB-image-3.inline.svg

<svg id="svg60" version="1.1" viewBox="0 0 224 165" width="100%" height="100%"
    xmlns="http://www.w3.org/2000/svg">
    <g id="g58" transform="translate(54.5 3.9999)" fill="none" fill-rule="evenodd">
        <path id="path2" d="m5.048 139.36c1.603-13.12 87.635-38.444 103.61-26.017 15.972 12.428.617 35.751-32.853 41.724-33.47 5.972-72.356-2.586-70.753-15.707z" fill="#9accff" opacity=".5" />
        <path id="path4" d="m28 89h3l-2.082 48h-.918z" fill="#c5cfd6" />
        <path id="path6" transform="matrix(-1,0,0,1,67,0)" d="m32 89h3l-2.082 48h-.918z" fill="#c5cfd6" />
        <path id="path8" d="m101 89h3v48h-.759z" fill="#c5cfd6" />
        <path id="path10" transform="matrix(-1,0,0,1,197,0)" d="m97 89h3v48h-.759z" fill="#c5cfd6" />
        <path id="path12" d="m27 83h78v6h-78z" fill="#c5cfd6" />
        <g id="g40" transform="translate(45,39)" fill-rule="nonzero">
            <ellipse id="ellipse14" cx="21.404" cy="7.936" rx="6.293" ry="6.291" fill="#ffb9b9" />
            <path id="path16" d="m16.767 11.082v9.933h10.268s-1.325-8.278-.663-10.761z" fill="#ffb9b9" />
            <path id="path18" d="m37.137 24.492s-9.771-4.801-9.771-5.132-.994-2.484-1.656-2.484c-.663 0-6.293-1.82-9.44.828l-.331 2.153-12.09 7.947 3.312 12.086s2.153 2.318 1.49 3.973c-.662 1.656.498 10.1.498 10.1l26-.828v-11.259s.829-2.649 1.326-3.476c.496-.828 0-3.312 0-3.312l3.974-4.967s-.496-4.635-3.312-5.629z" fill="#d4e4f4" />
            <path id="path20" d="m4.263 31.86.745-4.056s-4.306 18.708-3.808 20.86c.497 2.153 4.14 5.464 4.637 5.63.497.165 5.134-14.239 5.134-14.239z" fill="#000000" opacity=".1" />
            <path id="path22" d="m6.664 27.307-2.815.497s-4.306 18.708-3.81 20.86c.498 2.153 4.141 5.464 4.638 5.63.497.165 5.134-14.239 5.134-14.239z" fill="#d4e4f4" />
            <path id="path24" d="m38.048 32.853 1.408-2.732s1.987 18.709.662 20.53-6.566 2.503-6.566 2.503l-.058-13.595z" fill="#000000" opacity=".1" />
            <path id="path26" d="m38.296 27.97 2.153 2.151s1.988 18.709.663 20.53-6.566 2.503-6.566 2.503l-.059-13.595 3.81-11.59z" fill="#d4e4f4" />
            <path id="path28" d="m6.168 56.446s-4.803-1.821-5.631 1.656c-.828 3.476 1.987 19.04 1.987 19.04s1.822 11.754 2.981 12.085c1.16.331 6.293.497 7.121-.993.829-1.49-2.484-16.722-2.484-16.722l19.211-.331s-1.159 13.245-1.821 14.404c-.663 1.159-.663 5.132 0 5.132.662 0 7.949-.33 8.446-1.324.497-.993 3.312-23.344 3.312-23.344s2.319-7.782-.331-7.285c-2.65.496-32.791-2.318-32.791-2.318z" fill="#505361" />
            <path id="path30" d="m34.487 88.73s1.656-1.158 2.484 0c.829 1.16 1.16 2.484-2.484 4.47-3.643 1.988-6.459 1.49-6.459 1.16v-4.802l6.46-.827zm-28.651-.496s-1.656-1.159-2.484 0-1.16 2.483 2.484 4.47 6.46 1.49 6.46 1.16v-4.802z" fill="#000000" />
            <path id="path32" d="m21.445.003c-.627-.022-1.253.068-1.849.264-.462.185-.903.419-1.316.696l-2.78 1.727c-.482.209-.792.687-.784 1.213l-.347 2.599c-.088.656-.169 1.357.125 1.95.245.496.713.834 1.097 1.231.615.638 1.03 1.442 1.19 2.313.2 1.085.072 2.392.932 3.085.465.375 1.099.446 1.695.48 1.632.096 3.268.033 4.887-.188.258-.019.509-.09.739-.206.292-.173.476-.478.648-.77.62-1.056 1.26-2.18 1.253-3.405-.004-.605-.159-1.256.132-1.788.154-.225.321-.442.5-.648.36-.507.43-1.157.49-1.775.187-1.976-.01-3.479-1.466-4.87-1.358-1.301-3.291-1.896-5.146-1.908z" fill="#2f2e41" />
            <g id="g38">
                <path id="path34" transform="translate(1,47)" d="m5.488 28.475-5.488 27.94h2.744l5.259-27.482zm17.607 2.29 3.43 32.063h2.287l-2.058-32.979zm9.376-.916 4.802 21.299h2.286l-4.573-21.757zm-18.294 0-.686 16.947h1.83l1.372-16.947z" fill="#000000" />
                <path id="path36" transform="translate(1,47)" d="m1.6 25.498s-3.657-24.506 6.633-25.193 24.925 0 24.925 0 8.46-.687 5.945 25.193c0 0 2.287 7.557-18.293 6.87-20.581-.687-19.21-6.87-19.21-6.87z" fill="#002aaf" />
            </g>
        </g>
        <g id="g50">
            <g id="g46" transform="translate(0,41)">
                <ellipse id="ellipse42" cx="13.358" cy="9.31" rx="11.469" ry="6.072" fill="#f9d73d" />
                <path id="path44" d="M 26.715,13.493 C 26.715,6.04 20.735,0 13.358,0 5.98,0 0,6.04 0,13.493" fill="#9accff" />
            </g>
            <path id="path48" transform="translate(0,1)" d="m12 0h1v40h-1z" fill="#ebf5ff" />
        </g>
        <ellipse id="ellipse52" cx="36" cy="26" rx="9" ry="5" fill="#f9d73d" />
        <path id="path54" d="m47 29c0-6.075-4.701-11-10.5-11s-10.5 4.925-10.5 11" fill="#9accff" />
        <path id="path56" d="m36 0h1v18h-1z" fill="#ebf5ff" />
    </g>
</svg>

<svg xmlns="http://www.w3.org/2000/svg" width="100%" height="100%" viewBox="0 0 115 157">
    <g fill="none" fill-rule="evenodd">
        <path fill="#9ACCFF" d="M5.048 139.355c1.603-13.12 87.635-38.444 103.606-26.017 15.972 12.428.617 35.751-32.853 41.724-33.47 5.972-72.356-2.586-70.753-15.707z" opacity=".5"/>
        <path fill="#C5CFD6" d="M28 89L31 89 28.918 137 28 137z"/>
        <path fill="#C5CFD6" d="M32 89L35 89 32.918 137 32 137z" transform="matrix(-1 0 0 1 67 0)"/>
        <path fill="#C5CFD6" d="M101 89L104 89 104 137 103.241 137z"/>
        <path fill="#C5CFD6" d="M97 89L100 89 100 137 99.241 137z" transform="matrix(-1 0 0 1 197 0)"/>
        <path fill="#C5CFD6" d="M27 83H105V89H27z"/>
        <g fill-rule="nonzero" transform="translate(45 39)">
            <ellipse cx="21.404" cy="7.936" fill="#FFB9B9" rx="6.293" ry="6.291"/>
            <path fill="#FFB9B9" d="M16.767 11.082v9.933h10.268s-1.325-8.278-.663-10.761l-9.605.828z"/>
            <path fill="#D4E4F4" d="M37.137 24.492s-9.771-4.801-9.771-5.132c0-.331-.994-2.484-1.656-2.484-.663 0-6.293-1.82-9.44.828l-.331 2.153-12.09 7.947L7.161 39.89s2.153 2.318 1.49 3.973c-.662 1.656.498 10.1.498 10.1l26-.828V41.876s.829-2.649 1.326-3.476c.496-.828 0-3.312 0-3.312l3.974-4.967s-.496-4.635-3.312-5.629z"/>
            <path fill="#000" d="M4.263 31.86l.745-4.056S.702 46.512 1.2 48.664c.497 2.153 4.14 5.464 4.637 5.63.497.165 5.134-14.239 5.134-14.239L4.263 31.86z" opacity=".1"/>
            <path fill="#D4E4F4" d="M6.664 27.307l-2.815.497S-.457 46.512.039 48.664c.498 2.153 4.141 5.464 4.638 5.63.497.165 5.134-14.239 5.134-14.239L6.664 27.307z"/>
            <path fill="#000" d="M38.048 32.853l1.408-2.732s1.987 18.709.662 20.53c-1.325 1.821-6.566 2.503-6.566 2.503l-.058-13.595 4.554-6.706z" opacity=".1"/>
            <path fill="#D4E4F4" d="M38.296 27.97l2.153 2.151s1.988 18.709.663 20.53c-1.325 1.821-6.566 2.503-6.566 2.503l-.059-13.595 3.81-11.59z"/>
            <path fill="#505361" d="M6.168 56.446S1.365 54.625.537 58.102c-.828 3.476 1.987 19.04 1.987 19.04s1.822 11.754 2.981 12.085c1.16.331 6.293.497 7.121-.993.829-1.49-2.484-16.722-2.484-16.722l19.211-.331s-1.159 13.245-1.821 14.404c-.663 1.159-.663 5.132 0 5.132.662 0 7.949-.33 8.446-1.324.497-.993 3.312-23.344 3.312-23.344s2.319-7.782-.331-7.285c-2.65.496-32.791-2.318-32.791-2.318z"/>
            <path fill="#000" d="M34.487 88.73s1.656-1.158 2.484 0c.829 1.16 1.16 2.484-2.484 4.47-3.643 1.988-6.459 1.49-6.459 1.16v-4.802l6.46-.827zM5.836 88.234s-1.656-1.159-2.484 0c-.828 1.159-1.16 2.483 2.484 4.47 3.644 1.987 6.46 1.49 6.46 1.16v-4.802l-6.46-.828z"/>
            <path fill="#2F2E41" d="M21.445.003c-.627-.022-1.253.068-1.849.264-.462.185-.903.419-1.316.696L15.5 2.69c-.482.209-.792.687-.784 1.213l-.347 2.599c-.088.656-.169 1.357.125 1.95.245.496.713.834 1.097 1.231.615.638 1.03 1.442 1.19 2.313.2 1.085.072 2.392.932 3.085.465.375 1.099.446 1.695.48 1.632.096 3.268.033 4.887-.188.258-.019.509-.09.739-.206.292-.173.476-.478.648-.77.62-1.056 1.26-2.18 1.253-3.405-.004-.605-.159-1.256.132-1.788.154-.225.321-.442.5-.648.36-.507.43-1.157.49-1.775.187-1.976-.01-3.479-1.466-4.87C25.233.61 23.3.015 21.445.003z"/>
            <g>
                <path fill="#000" d="M5.488 28.475L0 56.415 2.744 56.415 8.003 28.933zM23.095 30.765L26.525 62.828 28.812 62.828 26.754 29.849zM32.471 29.849L37.273 51.148 39.559 51.148 34.986 29.391zM14.177 29.849L13.491 46.796 15.321 46.796 16.693 29.849z" transform="translate(1 47)"/>
                <path fill="#002AAF" d="M1.6 25.498S-2.057.992 8.233.305c10.29-.687 24.925 0 24.925 0s8.46-.687 5.945 25.193c0 0 2.287 7.557-18.293 6.87C.229 31.681 1.6 25.498 1.6 25.498z" transform="translate(1 47)"/>
            </g>
        </g>
        <g>
            <g transform="translate(0 1) translate(0 40)">
                <ellipse cx="13.358" cy="9.31" fill="#F9D73D" rx="11.469" ry="6.072"/>
                <path fill="#9ACCFF" d="M26.715 13.493C26.715 6.04 20.735 0 13.358 0 5.98 0 0 6.04 0 13.493"/>
            </g>
            <path fill="#EBF5FF" d="M12 0H13V40H12z" transform="translate(0 1)"/>
        </g>
        <ellipse cx="36" cy="26" fill="#F9D73D" rx="9" ry="5"/>
        <path fill="#9ACCFF" d="M47 29c0-6.075-4.701-11-10.5-11S26 22.925 26 29"/>
        <path fill="#EBF5FF" d="M36 0H37V18H36z"/>
    </g>
</svg>
